resources/svg/codepen.svg

<svg xmlns="http://www.w3.org/2000/svg" viewBox="0 0 15 15" fill="currentColor"><path fill-rule="evenodd" clip-rule="evenodd" d="M7.20938 0.0931333C7.38323 -0.0310444 7.61677 -0.0310444 7.79062 0.0931333L14.7906 5.09313C14.922 5.18699 15 5.33852 15 5.5V9.5C15 9.66148 14.922 9.81301 14.7906 9.90687L7.79062 14.9069C7.61677 15.031 7.38323 15.031 7.20938 14.9069L0.209381 9.90687C0.0779828 9.81301 0 9.66148 0 9.5V5.5C0 5.33852 0.0779828 5.18699 0.209381 5.09313L7.20938 0.0931333ZM1 6.47159L2.43977 7.5L1 8.52841V6.47159ZM1.36023 9.5L7 13.5284V10.7573L3.3 8.11445L1.36023 9.5ZM4.16023 7.5L7.5 9.88555L10.8398 7.5L7.5 5.11445L4.16023 7.5ZM8 4.24269L11.7 6.88555L13.6398 5.5L8 1.47159V4.24269ZM7 1.47159V4.24269L3.3 6.88555L1.36023 5.5L7 1.47159ZM14 6.47159L12.5602 7.5L14 8.52841V6.47159ZM13.6398 9.5L11.7 8.11445L8 10.7573V13.5284L13.6398 9.5Z" fill="black"/></svg>

<svg xmlns="http://www.w3.org/2000/svg" viewBox="0 0 15 15" fill="currentColor"><path fill-rule="evenodd" clip-rule="evenodd" d="M7.21.093a.5.5 0 01.58 0l7 5A.5.5 0 0115 5.5v4a.5.5 0 01-.21.407l-7 5a.5.5 0 01-.58 0l-7-5A.5.5 0 010 9.5v-4a.5.5 0 01.21-.407l7-5zM1 6.472L2.44 7.5 1 8.528V6.472zM1.36 9.5L7 13.528v-2.77L3.3 8.113 1.36 9.5zm2.8-2L7.5 9.886 10.84 7.5 7.5 5.114 4.16 7.5zM8 4.243l3.7 2.643L13.64 5.5 8 1.472v2.77zM7 1.472v2.77L3.3 6.887 1.36 5.5 7 1.472zm7 5L12.56 7.5 14 8.528V6.472zM13.64 9.5L11.7 8.114 8 10.757v2.771L13.64 9.5z" fill="currentColor"/></svg>
